X: 30678
T: Optimist, The
R: reel
M: 4/4
K: Dmajor
|:dBdf edfd|ABdA Bdfd|gdfd ed~d2|gaae afge|
dBdf edfd|ABdA Bdfd|gdfd ed~d2|afef d4:|
z2 g4 f2|fd~d2 edBd|Az g4 a2|aeaf gfed|
dz g4 f2|fd~d2 edBd|Az g4 a2|aeaf gfed||

